packages/ui-icons/svg/Line/target.svg

<svg viewBox="0 0 1920 1920" version="1.1" xmlns="http://www.w3.org/2000/svg">
    <path d="M1691.24894,1016.47059 C1663.69129,1376.18824 1376.14306,1663.62353 1016.42541,1691.29412 L1016.42541,1468.23529 L903.484235,1468.23529 L903.484235,1691.29412 C543.766588,1663.62353 256.331294,1376.18824 228.773647,1016.47059 L451.719529,1016.47059 L451.719529,903.529412 L228.773647,903.529412 C256.331294,543.811765 543.766588,256.376471 903.484235,228.705882 L903.484235,451.764706 L1016.42541,451.764706 L1016.42541,228.705882 C1376.14306,256.376471 1663.69129,543.811765 1691.24894,903.529412 L1468.19012,903.529412 L1468.19012,1016.47059 L1691.24894,1016.47059 Z M1804.19012,903.529412 C1776.18071,481.581176 1438.48659,143.774118 1016.42541,115.764706 L1016.42541,0 L903.484235,0 L903.484235,115.764706 C481.536,143.774118 143.841882,481.581176 115.832471,903.529412 L-0.0451764706,903.529412 L-0.0451764706,1016.47059 L115.832471,1016.47059 C143.841882,1438.41882 481.536,1776.22588 903.484235,1804.23529 L903.484235,1920 L1016.42541,1920 L1016.42541,1804.23529 C1438.48659,1776.22588 1776.18071,1438.41882 1804.19012,1016.47059 L1919.95482,1016.47059 L1919.95482,903.529412 L1804.19012,903.529412 Z M960,1242.35294 C804.367059,1242.35294 677.647059,1115.63294 677.647059,960 C677.647059,804.367059 804.367059,677.647059 960,677.647059 C1115.63294,677.647059 1242.35294,804.367059 1242.35294,960 C1242.35294,1115.63294 1115.63294,1242.35294 960,1242.35294 M960,564.705882 C742.023529,564.705882 564.705882,742.023529 564.705882,960 C564.705882,1177.97647 742.023529,1355.29412 960,1355.29412 C1177.97647,1355.29412 1355.29412,1177.97647 1355.29412,960 C1355.29412,742.023529 1177.97647,564.705882 960,564.705882" stroke="none" stroke-width="1" fill-rule="evenodd"/>
</svg>

<svg viewBox="0 0 1920 1920" version="1.1" xmlns="http://www.w3.org/2000/svg">
    <path d="M1691.249 1016.47c-27.558 359.718-315.106 647.154-674.824 674.824v-223.059h-112.94v223.06c-359.718-27.671-647.154-315.107-674.711-674.824H451.72V903.529H228.774c27.557-359.717 314.993-647.153 674.71-674.823v223.059h112.941v-223.06c359.718 27.671 647.266 315.107 674.824 674.824H1468.19v112.942h223.059zm112.941-112.94c-28.01-421.949-365.703-759.756-787.765-787.765V0h-112.94v115.765c-421.949 28.01-759.643 365.816-787.653 787.764H-.045v112.942h115.877c28.01 421.948 365.704 759.755 787.652 787.764V1920h112.941v-115.765c422.062-28.01 759.756-365.816 787.765-787.764h115.765V903.529H1804.19zM960 1242.352c-155.633 0-282.353-126.72-282.353-282.353S804.367 677.647 960 677.647 1242.353 804.367 1242.353 960 1115.633 1242.353 960 1242.353m0-677.647c-217.976 0-395.294 177.318-395.294 395.294 0 217.976 177.318 395.294 395.294 395.294 217.976 0 395.294-177.318 395.294-395.294 0-217.976-177.318-395.294-395.294-395.294" stroke="none" stroke-width="1" fill-rule="evenodd"/>
</svg>
